public/larsroettig-logo.svg

<svg
    width="32"
    height="32"
    viewBox="0 0 46 46"
    xmlns="http://www.w3.org/2000/svg"
  >
    <path
      fill="#fff"
      d="M30.8662 28.796L32.7281 25.0922L29.853 19.3308H35.6159L39.3016 11.9674L41.4167 7.73449L45.1151 0.385742H13.0076L16.6933 7.73449H34.0707L31.9555 11.9674H18.8212L22.5069 19.3308L25.382 25.0922L26.9525 28.2081L24.0901 33.9548L21.9496 29.6925L17.0733 19.9481L16.7694 19.3308L13.071 11.9674L10.9558 7.73449L7.27009 0.385742H0.0253252H0L3.68571 7.73449L5.75021 11.9674H5.73755L9.42325 19.3308L18.2766 37.0266L20.4297 41.3035L22.5576 45.654L22.5829 45.5952L26.2053 38.2612L30.8662 28.796Z"
    />
  </svg>

<svg xmlns="http://www.w3.org/2000/svg" viewBox="0 0 46 46"><path fill="#fff" d="M30.866 28.796l1.862-3.704-2.875-5.761h5.763l3.686-7.364 2.115-4.233L45.115.386H13.008l3.685 7.348h17.378l-2.115 4.233H18.82l3.686 7.364 2.875 5.761 1.57 3.116-2.862 5.747-2.14-4.262-4.877-9.745-.304-.617-3.698-7.364-2.115-4.233L7.27.386H0l3.686 7.348 2.064 4.233h-.012l3.685 7.364 8.854 17.696 2.153 4.276 2.128 4.351.025-.059 3.622-7.334 4.661-9.465z"/></svg>
